libs/ui/packages/crypto-icons/src/svg/MITH.svg

<svg width="24" height="24" viewBox="0 0 24 24" fill="none">
<path d="M13.6169 16.0401C13.6071 16.0221 13.6056 16.0146 13.6019 16.0123C13.1369 15.7926 12.6719 15.5721 12.2054 15.3553C12.1806 15.3433 12.1304 15.3463 12.1146 15.3636C11.9121 15.5811 11.7141 15.8038 11.5131 16.0266C11.6586 16.1338 13.4954 16.1346 13.6169 16.0401ZM9.36137 10.6678L9.31487 10.5703C9.27587 10.5981 9.22487 10.6183 9.19937 10.6558C8.76972 11.2951 8.34271 11.9361 7.91837 12.5788C7.89212 12.6193 7.89362 12.6786 7.88087 12.7288C7.93337 12.7183 7.99187 12.7206 8.03462 12.6943C8.39895 12.4752 8.75999 12.2507 9.11762 12.0208C9.18048 11.9765 9.22375 11.9096 9.23837 11.8341C9.28637 11.4591 9.31937 11.0818 9.36137 10.6678ZM18.3591 16.1053H18.9786C19.0979 16.1053 19.1436 16.0603 19.0679 15.9456C18.6741 15.3441 18.2819 14.7418 17.8866 14.1426C17.8656 14.1096 17.8176 14.0953 17.7816 14.0728C17.7629 14.1103 17.7306 14.1478 17.7269 14.1876C17.6811 14.7741 17.6399 15.3606 17.5949 15.9471C17.5866 16.0588 17.6256 16.1091 17.7396 16.1068C17.9459 16.1023 18.1521 16.1053 18.3591 16.1053ZM5.05862 16.0603C5.15312 16.0828 5.19962 16.1038 5.24537 16.1046C5.91512 16.1061 6.58487 16.1046 7.25387 16.1061C7.38362 16.1061 7.41662 16.0603 7.36187 15.9351C7.15176 15.4586 6.94625 14.9801 6.74537 14.4996C6.68687 14.3593 6.63287 14.3661 6.54062 14.4651C6.18362 14.8506 5.82362 15.2323 5.46512 15.6156C5.33987 15.7506 5.21762 15.8856 5.05862 16.0603ZM14.9549 12.6006C14.9984 12.6853 15.0126 12.7221 15.0344 12.7536L15.9404 14.0691C16.3146 14.6128 16.6881 15.1566 17.0654 15.6981C17.0909 15.7356 17.1404 15.7558 17.1779 15.7836C17.1974 15.7386 17.2289 15.6958 17.2349 15.6493C17.2499 15.5218 17.2529 15.3943 17.2611 15.2668C17.3016 14.6856 17.3466 14.1051 17.3811 13.5246C17.3961 13.2771 17.2889 13.1496 17.0541 13.0911C16.4279 12.9343 15.8016 12.7768 15.1746 12.6216C15.1184 12.6081 15.0591 12.6103 14.9549 12.6006ZM14.7959 8.74934L14.7389 8.75909C14.7314 8.87384 14.7201 8.98934 14.7164 9.10559L14.6331 11.9338C14.6294 12.0373 14.6601 12.0913 14.7674 12.1168C15.4169 12.2743 16.0649 12.4401 16.7144 12.5998C16.7706 12.6133 16.8329 12.6006 16.8921 12.5998C16.8771 12.5421 16.8741 12.4768 16.8464 12.4258C16.1991 11.2483 15.5504 10.0708 14.9001 8.89484C14.8716 8.84309 14.8311 8.79734 14.7959 8.74934ZM11.8821 14.5296C11.9001 14.4298 11.9174 14.3698 11.9196 14.3098C11.9294 13.9956 11.9301 13.6813 11.9444 13.3671C11.9578 13.1277 11.8867 12.8911 11.7434 12.6988C11.1479 11.8726 10.5541 11.0451 9.96212 10.2163C9.93512 10.1788 9.92387 10.1301 9.90512 10.0866L9.83462 10.1286C9.81737 10.1916 9.79037 10.2538 9.78362 10.3176C9.73112 10.8276 9.68612 11.3376 9.62987 11.8461C9.62131 11.8996 9.62547 11.9544 9.64201 12.006C9.65856 12.0576 9.68703 12.1045 9.72512 12.1431C10.3964 12.8908 11.0631 13.6431 11.7329 14.3931C11.7689 14.4336 11.8124 14.4666 11.8821 14.5296ZM12.3149 14.3728L12.3599 14.4028C12.4011 14.3706 12.4499 14.3451 12.4829 14.3053C13.0531 13.613 13.6214 12.919 14.1876 12.2233C14.2223 12.1793 14.2427 12.1256 14.2461 12.0696C14.2731 11.1433 14.2964 10.2171 14.3174 9.29084C14.3189 9.23984 14.2896 9.18809 14.2739 9.13709C14.2326 9.17684 14.1749 9.20909 14.1516 9.25709C13.6266 10.3686 13.1249 11.4913 12.5744 12.5886C12.2834 13.1691 12.3299 13.7683 12.3149 14.3736V14.3728ZM9.68762 16.1061C10.0484 16.1061 10.4099 16.1113 10.7706 16.1016C10.853 16.0977 10.9312 16.0644 10.9911 16.0078C11.2424 15.7446 11.4779 15.4656 11.7284 15.2016C11.8221 15.1041 11.8011 15.0441 11.7216 14.9571C11.2984 14.498 10.8788 14.0355 10.4631 13.5696C10.3626 13.4571 10.3049 13.4578 10.2149 13.5808C9.64412 14.3616 9.06737 15.1371 8.49362 15.9163C8.46512 15.9553 8.45462 16.0071 8.43512 16.0528C8.48537 16.0708 8.53562 16.1031 8.58662 16.1031C8.95412 16.1076 9.32012 16.1061 9.68762 16.1061ZM10.0611 13.1316C9.86162 12.8998 9.66587 12.6816 9.48062 12.4528C9.40262 12.3576 9.34262 12.3478 9.23762 12.4131C8.61062 12.8076 7.97687 13.1916 7.35137 13.5883C7.23812 13.6603 7.14887 13.7721 7.05287 13.8703C6.96362 13.9618 6.97562 14.0623 7.02437 14.1748C7.26812 14.7321 7.50587 15.2916 7.74662 15.8503C7.83812 16.0603 7.87262 16.0641 8.01287 15.8766C8.38412 15.3816 8.75387 14.8843 9.12362 14.3886L10.0611 13.1316ZM14.4074 12.5406C14.3586 12.6193 14.3354 12.6673 14.3024 12.7063C13.7084 13.4308 13.1136 14.1553 12.5151 14.8768C12.4176 14.9946 12.4679 15.0411 12.5781 15.0913C13.2659 15.4063 13.9506 15.7266 14.6399 16.0401C14.7281 16.0799 14.8236 16.1013 14.9204 16.1031C15.4874 16.1083 16.0551 16.1068 16.6229 16.1038C16.6754 16.1038 16.7286 16.0798 16.7819 16.0663C16.7631 16.0108 16.7549 15.9471 16.7219 15.8998C16.1987 15.1358 15.6739 14.3728 15.1476 13.6108C14.9151 13.2733 14.6811 12.9358 14.4074 12.5406ZM11.9946 16.8733C9.41312 16.8733 6.83162 16.8726 4.25012 16.8748C4.04912 16.8748 3.86762 16.8523 3.78062 16.6363C3.69812 16.4316 3.79412 16.2801 3.92837 16.1368C4.69937 15.3133 5.48087 14.4988 6.23087 13.6573C6.51737 13.3363 6.73862 12.9546 6.98087 12.5938C7.75712 11.4328 8.52737 10.2673 9.30737 9.10934C9.38387 8.99609 9.50087 8.88134 9.62387 8.83634C9.79337 8.77334 9.93812 8.87084 10.0461 9.02534C10.6739 9.92234 11.3061 10.8163 11.9369 11.7118C12.0666 11.8948 12.1131 11.8888 12.2091 11.6803L14.1546 7.44284C14.2311 7.27634 14.3324 7.13459 14.5296 7.12559C14.7359 7.11584 14.8611 7.24109 14.9579 7.41809C15.9344 9.18959 16.8884 10.9761 17.9031 12.7251C18.5166 13.7826 19.2269 14.7808 19.8936 15.8061C19.9761 15.9321 20.0594 16.0573 20.1404 16.1848C20.2379 16.3386 20.2956 16.5073 20.2041 16.6776C20.1141 16.8426 19.9476 16.8741 19.7729 16.8741C17.1801 16.8726 14.5874 16.8733 11.9946 16.8733Z" fill="#00316D"/>
</svg>

<svg width="24" height="24" viewBox="0 0 24 24" fill="none"><path fill="#00316d" d="M13.617 16.04c-.01-.018-.011-.025-.015-.028q-.697-.33-1.397-.657c-.024-.012-.075-.009-.09.009-.203.217-.4.44-.602.663.146.107 1.982.108 2.104.013M9.36 10.668l-.046-.098c-.04.028-.09.048-.116.086q-.645.96-1.28 1.923c-.027.04-.025.1-.038.15.052-.01.11-.008.154-.035q.546-.328 1.083-.673a.3.3 0 0 0 .12-.187c.048-.375.081-.752.123-1.166m8.998 5.437h.62c.119 0 .165-.045.089-.16l-1.181-1.802c-.021-.033-.07-.048-.105-.07-.02.037-.051.075-.055.115-.046.586-.087 1.173-.132 1.76-.008.11.03.161.145.159.206-.005.412-.002.62-.002m-13.3-.045c.094.023.14.044.186.045l2.009.001c.13 0 .163-.046.108-.17a81 81 0 0 1-.617-1.436c-.058-.14-.112-.134-.204-.035q-.536.577-1.076 1.15zm9.896-3.46c.043.085.058.122.08.154l.905 1.315q.561.816 1.125 1.63c.026.037.075.057.113.085.02-.045.05-.088.057-.135.015-.127.018-.255.026-.382.04-.581.086-1.162.12-1.742.015-.248-.092-.375-.327-.434l-1.88-.47c-.056-.013-.115-.01-.22-.02m-.16-3.85-.056.01c-.008.114-.019.23-.023.346l-.083 2.828c-.004.103.027.157.134.183.65.157 1.298.323 1.947.483.057.013.119 0 .178 0-.015-.058-.018-.123-.046-.174A1608 1608 0 0 0 14.9 8.895c-.028-.052-.069-.098-.104-.146m-2.913 5.78c.018-.1.035-.16.038-.22.01-.314.01-.629.024-.943a1.02 1.02 0 0 0-.2-.668q-.894-1.24-1.782-2.483c-.027-.037-.038-.086-.057-.13l-.07.043c-.018.063-.045.125-.051.189-.053.51-.098 1.02-.154 1.528a.35.35 0 0 0 .095.297q1.005 1.123 2.008 2.25c.036.04.08.074.15.137m.433-.157.045.03c.041-.032.09-.058.123-.098q.855-1.038 1.705-2.082a.3.3 0 0 0 .058-.153q.04-1.39.071-2.78c.002-.05-.027-.102-.043-.153-.041.04-.1.072-.122.12-.525 1.112-1.027 2.234-1.578 3.332-.29.58-.244 1.18-.26 1.785zM9.69 16.105c.36 0 .722.005 1.083-.004a.35.35 0 0 0 .22-.094c.251-.263.487-.542.737-.806.094-.098.073-.158-.006-.245q-.636-.688-1.259-1.387c-.1-.113-.158-.112-.248.01-.57.782-1.148 1.557-1.721 2.336-.029.04-.04.091-.059.137.05.018.1.05.152.05.367.005.733.003 1.1.003m.373-2.974c-.2-.232-.395-.45-.58-.68-.078-.094-.138-.104-.243-.039-.627.395-1.261.779-1.887 1.175-.113.072-.202.184-.298.282-.09.092-.077.192-.029.305.244.557.482 1.117.723 1.675.091.21.126.214.266.027l1.11-1.488zm4.346-.591c-.048.078-.072.126-.105.165q-.89 1.089-1.787 2.17c-.097.119-.047.165.063.215.688.315 1.373.636 2.062.95q.134.059.28.062.85.007 1.703 0c.052 0 .106-.023.159-.037-.019-.055-.027-.119-.06-.166a698 698 0 0 0-1.574-2.29zm-2.412 4.332q-3.873 0-7.745.002c-.2 0-.382-.023-.47-.239-.082-.204.014-.356.148-.5.771-.823 1.553-1.637 2.303-2.479.286-.32.508-.702.75-1.063.776-1.161 1.546-2.327 2.326-3.485a.73.73 0 0 1 .317-.273c.17-.063.314.035.422.19l1.89 2.686c.13.183.177.177.273-.032l1.946-4.237c.076-.167.177-.308.375-.317.206-.01.331.115.428.292.976 1.772 1.93 3.558 2.945 5.307.614 1.058 1.324 2.056 1.99 3.081q.125.188.247.379c.098.154.156.322.064.493-.09.165-.256.196-.431.196z"/></svg>
